images/ICONOS/EXPERIENCIA/CEGID ICON.svg

<svg width="40" height="52" viewBox="0 0 40 52" fill="none" xmlns="http://www.w3.org/2000/svg">
<path d="M19.7547 38.5019V33.5027M19.7547 33.5027C20.6322 33.5027 21.4943 33.2715 22.2542 32.8328C23.0142 32.394 23.6452 31.763 24.084 31.0031M19.7547 33.5027C18.8772 33.5027 18.0152 33.2715 17.2553 32.8328C16.4953 32.394 15.8642 31.763 15.4255 31.0031M26.0044 44.751H13.5064M26.0044 44.751C26.0044 42.9688 26.0044 42.0765 26.0993 41.4841C26.4068 39.5769 26.4593 39.4544 27.6766 37.9547C28.054 37.4897 29.4538 36.2349 32.2558 33.7254C34.2233 31.969 35.797 29.8162 36.8736 27.4085C37.9501 25.0008 38.5052 22.3926 38.5023 19.7552C38.5053 17.6266 38.1443 15.5131 37.435 13.5062M26.0044 44.751C26.0044 47.0881 26.0043 48.2555 25.5019 49.1253C25.1729 49.6952 24.6996 50.1685 24.1297 50.4976C23.2598 51 22.0925 51 19.7554 51C17.4183 51 16.251 51 15.3811 50.4976C14.8112 50.1685 14.3379 49.6952 14.0088 49.1253C13.5064 48.2555 13.5064 47.0881 13.5064 44.751M13.5064 44.751C13.5064 42.9688 13.5064 42.0765 13.4114 41.4841C13.104 39.5769 13.0515 39.4544 11.8342 37.9547C11.4568 37.4897 10.0545 36.2349 7.25496 33.7254C3.79661 30.6348 1.60671 26.3719 1.10851 21.7606C0.610308 17.1494 1.83918 12.5171 4.55761 8.7592C7.27604 5.00127 11.291 2.38447 15.8266 1.41454C20.3621 0.444619 25.0962 1.19044 29.1138 3.50787" stroke="url(#paint0_linear_1_1949)" stroke-width="2" stroke-linecap="round"/>
<defs>
<linearGradient id="paint0_linear_1_1949" x1="1" y1="51.0011" x2="38.5023" y2="51.0011" gradientUnits="userSpaceOnUse">
<stop stop-color="#1723FF"/>
<stop offset="1" stop-color="#30E35E"/>
</linearGradient>
</defs>
</svg>

<svg xmlns="http://www.w3.org/2000/svg" width="40" height="52" fill="none"><path stroke="url(#a)" stroke-linecap="round" stroke-width="2" d="M19.755 38.502v-5m0 0a5 5 0 0 0 4.329-2.499m-4.33 2.5a5 5 0 0 1-4.329-2.5m10.58 13.748H13.505m12.498 0c0-1.782 0-2.674.095-3.267.308-1.907.36-2.03 1.578-3.53.377-.464 1.777-1.72 4.579-4.229a18.7 18.7 0 0 0 6.246-13.97 18.674 18.674 0 0 0-1.067-6.249m-11.43 31.245c0 2.337 0 3.505-.503 4.374a3.75 3.75 0 0 1-1.372 1.373c-.87.502-2.037.502-4.375.502-2.337 0-3.504 0-4.374-.502a3.75 3.75 0 0 1-1.372-1.373c-.503-.87-.503-2.037-.503-4.374m0 0c0-1.782 0-2.674-.095-3.267-.307-1.907-.36-2.03-1.577-3.53-.377-.464-1.78-1.72-4.579-4.229A18.747 18.747 0 0 1 29.114 3.508"/><defs><linearGradient id="a" x1="1" x2="38.502" y1="51.001" y2="51.001" gradientUnits="userSpaceOnUse"><stop stop-color="#1723FF"/><stop offset="1" stop-color="#30E35E"/></linearGradient></defs></svg>
